svgs/solid/lock-keyhole-open.svg

<svg xmlns="http://www.w3.org/2000/svg" viewBox="0 0 576 512"><!--! Font Awesome Pro 6.5.1 by @fontawesome - https://fontawesome.com License - https://fontawesome.com/license (Commercial License) Copyright 2023 Fonticons, Inc. --><path d="M432 64c-44.2 0-80 35.8-80 80v48h32c35.3 0 64 28.7 64 64V448c0 35.3-28.7 64-64 64H64c-35.3 0-64-28.7-64-64V256c0-35.3 28.7-64 64-64H288V144C288 64.5 352.5 0 432 0s144 64.5 144 144v48c0 17.7-14.3 32-32 32s-32-14.3-32-32V144c0-44.2-35.8-80-80-80zM256 384c17.7 0 32-14.3 32-32s-14.3-32-32-32H192c-17.7 0-32 14.3-32 32s14.3 32 32 32h64z"/></svg>

<svg xmlns="http://www.w3.org/2000/svg" viewBox="0 0 576 512"><!--! Font Awesome Pro 6.1.1 by @fontawesome - https://fontawesome.com License - https://fontawesome.com/license (Commercial License) Copyright 2022 Fonticons, Inc. --><path d="M432 64C387.8 64 352 99.82 352 144V192H384C419.3 192 448 220.7 448 256V448C448 483.3 419.3 512 384 512H64C28.65 512 0 483.3 0 448V256C0 220.7 28.65 192 64 192H288V144C288 64.47 352.5 0 432 0C511.5 0 576 64.47 576 144V192C576 209.7 561.7 224 544 224C526.3 224 512 209.7 512 192V144C512 99.82 476.2 64 432 64zM256 384C273.7 384 288 369.7 288 352C288 334.3 273.7 320 256 320H192C174.3 320 160 334.3 160 352C160 369.7 174.3 384 192 384H256z"/></svg>
